X:1
T:Title
%%score { ( 1 4 ) | ( 2 3 ) }
L:1/8
M:4/4
K:Eb
V:1 treble nm="Grand Piano"
V:4 treble 
V:2 bass 
V:3 bass 
V:1
 z4 z2[Q:1/4=86] [EG][FA] | [GB]>[Ac] [GB][FA] [B,EG][G,B,E][B,DG][A,DF] | [G,E]6 [DF][EG] | %3
 [FA]>[GB] [FA][EG] [DF][Dc][DB][FA] |[M:3/4] [EG]6 |[M:1/4] [EG][GB] | %6
[M:4/4] [Ge]>[Ge] [Ge][Ge] [Gd]2 [=B,FG][B,Fd] | %7
[M:17/16] [CEc]>[Ec][Ec][Ec][EB]-<[EB][Ge]3/2.[CAc] | %8
[M:4/4] [EGB]>[EAc] [EGB][CFA] [B,EG][G,E] [B,DG]>[A,DF] |[M:3/4] [G,E]6 |[M:1/4] [B,EG][B,EG] | %11
[M:4/4] A->[GA-] [FA-][EA] .[B,DF]2 [EG][EFA] |[M:3/4] B->[AB-] [GB-][FB] G2 |[M:1/4] GG | %14
[M:4/4] F2 z2 F2 z2 |[M:3/4] B->[AB-] [GB-][FB-] [EB]2 |[M:1/4] G[GB] | %17
[M:4/4] [Ge]>[Ge] [Ge][Ge] [Gd]2 [=B,FG][B,Fd] | %18
[M:17/16] [CEc]>[Ec][Ec][Ec][EB]-<[EB][Ge]3/2.[CAc] | %19
[M:4/4] [EGB]>[EAc] [EGB][CFA] [B,EG][G,E] [B,DG]>[A,DF] |[M:7/4] [G,E]6 z2 z2 z4 |] %21
V:2
 z4 z2 [E,B,][E,B,] | [E,E]>[E,E] [E,E][E,E] E,E,B,,B,, | E,6 [B,,B,][B,,B,] | %3
 [B,,B,]>[B,,B,] [B,,B,][B,,B,] [B,,B,][B,,A,][B,,F,][B,,B,] |[M:3/4] [E,B,]6 | %5
[M:1/4] [E,B,][E,B,] |[M:4/4] [C,C]>[D,C] [E,C][F,C] [G,=B,]2 G,,G,, | %7
[M:17/16] A,,>[B,,A,][C,A,][D,A,][E,G,]-<[E,G,][E,B,]3/2 z/ D/ | %8
[M:4/4] E,>E, E,A,, B,,B,, B,,>B,, |[M:3/4] E,6 |[M:1/4] E,E, |[M:4/4] z z/ B,/ B,B, z B,B,,B,, | %12
[M:3/4] [E,E]>[E,E] [E,E][E,B,] [E,B,E]2 |[M:1/4] [E,B,E][E,B,E] | %14
[M:4/4] [B,,B,]>[B,,B,] [B,,B,][B,,B,] [B,,B,]B,,B,,B,, |[M:3/4] z z/ E/ EB, G,2 | %16
[M:1/4] [E,B,E][E,B,] |[M:4/4] [C,C]>[D,C] [E,C][F,C] [G,=B,]2 G,,G,, | %18
[M:17/16] A,,>[B,,A,][C,A,][D,A,][E,G,]-<[E,G,][E,B,]3/2 z/ D/ | %19
[M:4/4] E,>E, E,A,, B,,B,, B,,>B,, |[M:7/4] E,6 z2 z2 z4 |] %21
V:3
 x8 | x8 | x8 | x8 |[M:3/4] x6 |[M:1/4] x2 |[M:4/4] x8 | %7
[M:17/16] z/ z/ z/ z/ z/ z/ z/ z/ z/ z/ z/ z/ z/ z E, |[M:4/4] x8 |[M:3/4] x6 |[M:1/4] x2 | %11
[M:4/4] B,,4 B,,2 z2 |[M:3/4] x6 |[M:1/4] x2 |[M:4/4] x8 |[M:3/4] E,6 |[M:1/4] x2 |[M:4/4] x8 | %18
[M:17/16] z/ z/ z/ z/ z/ z/ z/ z/ z/ z/ z/ z/ z/ z E, |[M:4/4] x8 |[M:7/4] x14 |] %21
V:4
 x8 | x8 | x8 | x8 |[M:3/4] x6 |[M:1/4] x2 |[M:4/4] x8 |[M:17/16] x17/2 |[M:4/4] x8 |[M:3/4] x6 | %10
[M:1/4] x2 |[M:4/4] [B,F]2 z2 z4 |[M:3/4] G2 z2 z2 |[M:1/4] x2 | %14
[M:4/4] A->[GA-] [FA-][EA] DB,[EG][EFA] |[M:3/4] [EG]2 z2 z2 |[M:1/4] x2 |[M:4/4] x8 | %18
[M:17/16] x17/2 |[M:4/4] x8 |[M:7/4] x14 |] %21

